X:2585
L:1/8
M:4/4
K:G
 G | FDDF ADDF | (3ABA GB ADDe | (3gfe df edce | dcAB cAGB | AD D2 FDDF | (3ABA GB ADDe | 
 (3gfe dc ABA GB | A>BD>A D3 :: f/g/ | afdf g2 (3gfe | de (3fed BAFA | (3ABA FA (3ABA FA | 
 (3ABA FA BAfg | afdf g2 (3gfe | de (3gfe BAFG | A3 B G2 AF | (3GFE D>A D2 :|

